assets/img/braze_icons/variable.svg

<svg fill="none" height="24" viewBox="0 0 24 24" width="24" xmlns="http://www.w3.org/2000/svg"><g fill="#801ed7"><path d="m20.8025 2.55706c-.2448-.49509-.8445-.69803-1.3396-.45328-.4951.24476-.698.84452-.4533 1.33961 1.2736 2.57629 1.9904 5.4809 1.9904 8.55681 0 3.076-.7168 5.9806-1.9904 8.5569-.2447.495-.0418 1.0948.4533 1.3396.4951.2447 1.0948.0418 1.3396-.4533 1.407-2.846 2.1975-6.0533 2.1975-9.4432 0-3.38983-.7906-6.59712-2.1975-9.44314z"/><path d="m4.99037 3.44339c.24475-.49509.04181-1.09485-.45328-1.33961-.49509-.24475-1.09485-.04181-1.3396.45328-1.40697 2.84602-2.19749 6.05331-2.19749 9.44314 0 3.3899.79052 6.5972 2.19749 9.4432.24475.4951.84451.698 1.3396.4533.49509-.2448.69803-.8446.45328-1.3396-1.27363-2.5763-1.99037-5.4809-1.99037-8.5569 0-3.07591.71674-5.98052 1.99037-8.55681z"/><path d="m13.9986 8.76189c.6146-.72074 1.5131-1.13689 2.4604-1.13689h.0896c.5523 0 1 .44772 1 1s-.4477 1-1 1h-.0896c-.3596 0-.7026.15789-.9385.4345l-2.3401 2.7444.7409 2.6068c.0159.0559.0646.0893.1142.0893h1.3941c.5523 0 1 .4477 1 1s-.4477 1-1 1h-1.3941c-.9497 0-1.7793-.6326-2.038-1.5425l-.3765-1.3247-1.4753 1.7303c-.6146.7208-1.51313 1.1369-2.46038 1.1369h-.08968c-.55228 0-1-.4477-1-1s.44772-1 1-1h.08968c.35955 0 .70257-.1579.93847-.4345l2.34021-2.7446-.7409-2.60657c-.0159-.05594-.0645-.08933-.1142-.08933h-1.39406c-.55228 0-1-.44772-1-1s.44772-1 1-1h1.39406c.9497 0 1.7794.63256 2.038 1.54254l.3765 1.32456z"/></g></svg>

<svg width="24" height="24" viewBox="0 0 24 24" fill="none" xmlns="http://www.w3.org/2000/svg">
<path d="M20.8025 2.55706C20.5577 2.06197 19.958 1.85903 19.4629 2.10378C18.9678 2.34854 18.7649 2.9483 19.0096 3.44339C20.2832 6.01968 21 8.92429 21 12.0002C21 15.0762 20.2832 17.9808 19.0096 20.5571C18.7649 21.0521 18.9678 21.6519 19.4629 21.8967C19.958 22.1414 20.5577 21.9385 20.8025 21.4434C22.2095 18.5974 23 15.3901 23 12.0002C23 8.61037 22.2094 5.40308 20.8025 2.55706Z" fill="#801ED7"/>
<path d="M4.99037 3.44339C5.23512 2.9483 5.03218 2.34854 4.53709 2.10378C4.042 1.85903 3.44224 2.06197 3.19749 2.55706C1.79052 5.40308 1 8.61037 1 12.0002C1 15.3901 1.79052 18.5974 3.19749 21.4434C3.44224 21.9385 4.042 22.1414 4.53709 21.8967C5.03218 21.6519 5.23512 21.0521 4.99037 20.5571C3.71674 17.9808 3 15.0762 3 12.0002C3 8.92429 3.71674 6.01968 4.99037 3.44339Z" fill="#801ED7"/>
<path d="M13.9986 8.76189C14.6132 8.04115 15.5117 7.625 16.459 7.625H16.5486C17.1009 7.625 17.5486 8.07272 17.5486 8.625C17.5486 9.17728 17.1009 9.625 16.5486 9.625H16.459C16.0994 9.625 15.7564 9.78289 15.5205 10.0595L13.1804 12.8039L13.9213 15.4107C13.9372 15.4666 13.9859 15.5 14.0355 15.5H15.4296C15.9819 15.5 16.4296 15.9477 16.4296 16.5C16.4296 17.0523 15.9819 17.5 15.4296 17.5H14.0355C13.0858 17.5 12.2562 16.8674 11.9975 15.9575L11.621 14.6328L10.1457 16.3631C9.5311 17.0839 8.63257 17.5 7.68532 17.5H7.59564C7.04336 17.5 6.59564 17.0523 6.59564 16.5C6.59564 15.9477 7.04336 15.5 7.59564 15.5H7.68532C8.04487 15.5 8.38789 15.3421 8.62379 15.0655L10.964 12.3209L10.2231 9.71433C10.2072 9.65839 10.1586 9.625 10.1089 9.625H8.71484C8.16256 9.625 7.71484 9.17728 7.71484 8.625C7.71484 8.07272 8.16256 7.625 8.71484 7.625H10.1089C11.0586 7.625 11.8883 8.25756 12.1469 9.16754L12.5234 10.4921L13.9986 8.76189Z" fill="#801ED7"/>
</svg>
